X:1
T:After The Battle Of Aughrim
N: Extrapolated from a YT FiddleHed clip.
R:march
M:2/4
L:1/8
K:Ador
|: "Am"A/G/ | "Am"EA AB/d/ | "Am"ed cA | "G"BG G/A/B/G/ | "G"AG E/G/D |
"Am"EA AB/d/ | "Am"ed cA | "G"BG dB | "Am"A2 A :|
|: "Am"z | "Am"ae ef/g/ | "Am"a/b/a/g/ ef/g/ | "G"ag ed | "G"B/c/d ef/g/ |
"Am"ae ef/g/ | "Am"a/b/a/g/ ed | "G"Be dB | "Am"A2 A :|
